X:1
T:James Gibb editions
T:Psalm 79 (Becker) - Schütz
%%score [ ( 1 2 ) ( 3 4 ) ]
L:1/8
Q:1/4=100
M:2/2
K:F
V:1 treble nm="Soprano Alto"
V:2 treble 
V:3 bass nm="Tenor Bass"
V:4 bass 
V:1
"^Cornelius Becker\n(1561-1604)""^Psalm 79, SWV 176""^Heinrich Schütz\n(1585-1672)" d4 B4 | %1
w: ~Ach Herr,|
w: sie ha-|
 G2 G4 A2 | B2 c2 d4 | _e4 d4 | c2 B4 G2 | c4 B4 :|[M:2/2] F4 c4 | c2 c4 A2 | B2 G2 ^F4 | A4 B4 | %10
w: es ist der|Hei- den Heer|ge- fal-|len in dein|Er- be,|er muß|ent- hei- ligt,|ö- de stehn,|die hei-|
w: ben es ver-|wü- stet sehr,|dei- nen|Tem- pel ver-|der- bet,|||||
 c2 d4 c2 | B2 B2 A4 | c4 f4 | _e2 d4 B2 | A8 | G8 |] %16
w: lig Stadt Je-|ru- sa- lem|zum Stein-|hau- fen ist|wor-|den.|
w: ||||||
V:2
 G4 G4 | D2 D4 D2 | D2 G2 ^F4 | G4 G4 | C2 F4 G2 | F4 F4 :|[M:2/2] F4 A4 | E2 E4 F2 | D2 G,2 D4 | %9
 D4 D4 | F2 F4 F2 | F2 E2 F4 | C4 D4 | G,2 B,4 D2 | D8 | D8 |] %16
V:3
 B,4 D4 | B,2 B,4 A,2 | G,2 G,2 A,4 | C4 B,4 | F2 D4 B,2 | A,4 B,4 :|[M:2/2] D4 !courtesy!=E4 | %7
 C2 A,4 D2 | B,2 C2 A,4 | ^F,4 G,4 | A,2 B,4 C2 | %11
"^3. Ein Schmach wir unsern Nachbarn sein und stehen nur zum Hohne,\nes spotten unser insgemein all, die um uns her wohnen,\nwie lang willt du denn zürnen, Herr, \nund über uns den Eifer schwer\nwie Feuer brennen lassen?\n\n5. Gedenk nicht unsrer Missetat, auch nicht der Väter Sünde,\nerbarm dich unser bald in Gnad, wir sind worden elende,\nHerr, unser Helfer, treuer Gott, \nhilf uns aus dieser großen Not\num deines Namens Ehre.\n\n6. Errette uns, vergib die Sünd um deines Namens Willen,\nwarum läßt du dies heidnisch G'sind seinen Mutwill'n erfüllen?\nAch Gott, wie weh tut uns der Spott, \ndaß man schreit: Wo ist nun ihr Gott,\nder ihnen hilft aus Nöten?" D2 B,2 C4 | %12
 A,4 A,4 | C2 F,4 G,2 | (G,2 ^F,E, F,4) | G,8 |] %16
V:4
 G,4 G,4 | G,2 G,4 ^F,2 | G,2 _E,2 D,4 | C,4 G,4 | A,2 B,4 _E,2 | F,4 B,,4 :|[M:2/2] B,4 A,4 | %7
 A,2 A,4 D,2 | G,2 _E,2 D,4 | D,4 G,4 | =F,2 B,4 A,2 | G,2 G,2 F,4 | F,4 D,4 | C,2 B,,4 G,,2 | %14
 D,8 | G,,8 |] %16

